X:236
T:Dawg Funk
C:David Grisman
N:From the "Mando Mondo" CD Transcribed by Mike Stangeland
L:1/8
Q:1/4=184
M:4/4
K:C
"Am7"E3G2z {G}A2 | z2 D^D =DC A,G, | "D7"A,A, A,C CC D2 | z8 | "Am7"EE EG2z {G}A2 | 
z2 D^D =DC A,G, | "Dm7"CG, A,D "G7"zC z2 | "Bm7"B,A, G,{G}A "E9"zG z2 | "Am7"ED EG2z {G}A2 | 
z2 D^D =DC A,G, | "D7"A,A, A,C CC D2 | z2 D^D =DC A,G, | B,3"F"C z2 G,2 | "E7b9"z2 G^D =DC A,G, | 
"Am7"CA,3 [gcEA,][gcEA,] [gcEA,][gcEA,] | z8 | "Am7"E3G3 {G}A2 | z2 D^D =DC A,G, | 
"D7"A,A, A,C CC D2 | z2 [c2G2D2] [cGD][c3G3D3] | "Am7"EE EG2z {G}AA | z2 D^D =DC A,G, | 
"Dm7"CG, A,D "G7"zC z2 | "Bm7"B,A, G,{G}A "E9"zG z2 | "Am7"ED EG2z {G}A2 | z2 D^D =DC A,G, | 
"D7"A,A, A,C CC D2 | z2 D^D =DC A,G, | "E"[E3^G,3]"F"[F3A,3] [G2B,2] | "E7b9"zG z^D =DC A,G, | 
"Am7"CA,3 [acEA,][acEA,] [acEA,][acEA,] | z8 | {g}"Dm7"a/a/a/a/ a/a/a/a/ a/a/a/a/ a/a/a/a/ | 
a/a/a/a/ a/a/a/a/ (3a2b2 c'2 | {c'}"Am7"d'/d'/d'/d'/ d'/d'/d'/d'/ (3d'2b2 g2 | 
e8 | "E7"(3D2E2 F2 (3^G2B2 c2 | {d}e4 d4 | "Am7"(3z2B2 c2 (3d2e2 g2 | f3g/f/ e4 | 
{c}(3"Bbmaj7"ddd (3ddd dc dc | "C9"{d}(3eee (3eee (3e2g2 a2 | (3"Fmaj7"gage/ d6 | 
z8 | "Gm7"DE F"C7"E z4 | "Am7"E^F G"D7"F z4 | "Bm7"z2 z/G3/2 z/B3/2 z/g3/2 | "E9"z4 [_b4f4] | 
"Am7"E3G3 {G}A2 | z2 D^D =DC A,G, | "D7"A,A, A,C CC D2 | z2 [c2G2D2] [cGD][c3G3D3] | 
"Am7"EE EG2z {G}AA | z2 D^D =DC A,G, | "Dm7"CG, A,D "G7"zC z2 | "Bm7"B,A, G,{G}A "E9"zG z2 | 
"Am7"ED EG2z {G}A2 | z2 D^D =DC A,G, | "D7"A,A, A,C CC D2 | z2 D^D =DC A,G, | 
"E"[E3^G,3]"F"[F3A,3] [G2B,2] | "E7b9"zG z^D =DC A,G, | "Am7"CA,3 [acEA,][acEA,] [acEA,][acEA,] | 
z8 | {g}(3aaa (3aaa (3aaa g2 | aa g2 aa g2 | {_b}(3c'c'c' (3c'c'c' (3c'c'c' (3c'c'c' | 
(3c'c'c' c'(3a2 (3c'2a2 c'2 | (3d'd'd' (3d'd'd' d'3z | z2 (3age c'2 a2 | d^d =d6 | 
(3a2g2 a3/2d/ e4 | z2 dc dc dc | d^d4z =dc | dc dc d^d2c | z2 {^G}(3=GGG (3GGG (3GGG | 
^DE zD =DC D^D | DC D^D =DG2G | A8 | 
 

